X:1
T: Castle Forbes
C:Alexander Walker
R:Strathspey
Q: 128
K:Em
M:4/4
L:1/16
|:B2|GE3 B3D B,3E E3G|F3D A,D3 F3G AF3|GE3 B3D B,E3 E3e|((3B2d2B2) AF3 E4 E2B2|
GE3 B3D B,3E E3G|F3D A,D3 F3G AF3|GE3 B3D B,E3 E3e|((3B2d2B2) AF3 E4 E2F2|
g3e f3d eB3 B3c|d3B Ad3 FD3 A3f|g3e f3d eB3 B3e|((3B2d2B2) AF3 E4 E3f|
g3e f3d eB3 B3c|d3B A3G FGAF D3F|E3G F3A G3B A3d|((3B2d2B2) A3F E4 E2:|
